X: 410
P: Longways for as many as will.
M: 6/4
L: 1/4
K: Gm
V: 1
|: B/c/ | dBb a2g | (fd)g f2f |
V: 2 clef=bass middle=d
z | g3 ^f2g | d2e d2c | BAG d2D | gdB G2 :|\
|: z | b2B f2e | d2e d2B |
d2B d2e | f3 F3 | g2z a2z | b2c' d'2c' | bag d2D | gdB G2 :|

